svg/logo/meta_fill.svg

<?xml version="1.0" encoding="UTF-8"?>
<svg width="24px" height="24px" viewBox="0 0 24 24" version="1.1" xmlns="http://www.w3.org/2000/svg" xmlns:xlink="http://www.w3.org/1999/xlink">
    <title>meta_fill</title>
    <g id="页面-1" stroke="none" stroke-width="1" fill="none" fill-rule="evenodd">
        <g id="Brand" transform="translate(-480.000000, -48.000000)">
            <g id="meta_fill" transform="translate(480.000000, 48.000000)">
                 <path d="M24,0 L24,24 L0,24 L0,0 L24,0 Z M12.5934901,23.257841 L12.5819402,23.2595131 L12.5108777,23.2950439 L12.4918791,23.2987469 L12.4918791,23.2987469 L12.4767152,23.2950439 L12.4056548,23.2595131 C12.3958229,23.2563662 12.3870493,23.2590235 12.3821421,23.2649074 L12.3780323,23.275831 L12.360941,23.7031097 L12.3658947,23.7234994 L12.3769048,23.7357139 L12.4804777,23.8096931 L12.4953491,23.8136134 L12.4953491,23.8136134 L12.5071152,23.8096931 L12.6106902,23.7357139 L12.6232938,23.7196733 L12.6232938,23.7196733 L12.6266527,23.7031097 L12.609561,23.275831 C12.6075724,23.2657013 12.6010112,23.2592993 12.5934901,23.257841 L12.5934901,23.257841 Z M12.8583906,23.1452862 L12.8445485,23.1473072 L12.6598443,23.2396597 L12.6498822,23.2499052 L12.6498822,23.2499052 L12.6471943,23.2611114 L12.6650943,23.6906389 L12.6699349,23.7034178 L12.6699349,23.7034178 L12.678386,23.7104931 L12.8793402,23.8032389 C12.8914285,23.8068999 12.9022333,23.8029875 12.9078286,23.7952264 L12.9118235,23.7811639 L12.8776777,23.1665331 C12.8752882,23.1545897 12.8674102,23.1470016 12.8583906,23.1452862 L12.8583906,23.1452862 Z M12.1430473,23.1473072 C12.1332178,23.1423925 12.1221763,23.1452606 12.1156365,23.1525954 L12.1099173,23.1665331 L12.0757714,23.7811639 C12.0751323,23.7926639 12.0828099,23.8018602 12.0926481,23.8045676 L12.108256,23.8032389 L12.3092106,23.7104931 L12.3186497,23.7024347 L12.3186497,23.7024347 L12.3225043,23.6906389 L12.340401,23.2611114 L12.337245,23.2485176 L12.337245,23.2485176 L12.3277531,23.2396597 L12.1430473,23.1473072 Z" id="MingCute" fill-rule="nonzero"></path>
                <path d="M16.0235,4.50341 C17.8529,4.3766 19.267,5.44519 20.2076,6.67737 C21.156,7.91976 21.8094,9.54336 22.1673,11.1394 C22.5251,12.7347 22.6208,14.4504 22.3239,15.9123 C22.0388,17.3161 21.2785,18.9223 19.5568,19.437 C17.9375,19.9211 16.5179,19.2167 15.5052,18.3648 C14.4894,17.5103 13.6292,16.3122 12.953,15.1885 C12.6252,14.6438 12.3272,14.0938 12.0637,13.573 C11.8001,14.0938 11.5021,14.6438 11.1743,15.1885 C10.4981,16.3122 9.63792,17.5103 8.62209,18.3648 C7.60941,19.2167 6.18982,19.9211 4.57048,19.437 C2.84884,18.9223 2.08848,17.3161 1.80341,15.9123 C1.50655,14.4504 1.60217,12.7347 1.95995,11.1394 C2.31789,9.54336 2.97134,7.91976 3.91972,6.67737 C4.86029,5.44519 6.27437,4.3766 8.10383,4.50341 C9.81996636,4.62237364 11.0674829,5.78648603 11.8446591,6.77187041 L12.0637,7.0609 L12.0637,7.0609 L12.2827156,6.77187041 C13.059814,5.78648603 14.3073182,4.62237364 16.0235,4.50341 Z M7.89637,7.49623 C7.47584,7.46708 6.92691,7.6821 6.30436,8.49766 C5.68961,9.30301 5.17981,10.4913 4.88724,11.7959 C4.59453,13.1011 4.5524,14.3747 4.74341,15.3153 C4.90819312,16.126825 5.17222414,16.4173547 5.33536471,16.5186918 L5.40276778,16.5532373 L5.40276778,16.5532373 L5.42973,16.5627 C5.6624,16.6322 6.04382,16.6134 6.69089,16.0691 C7.33482,15.5274 7.99318,14.6564 8.60392,13.6416 C8.87629333,13.1890333 9.12860444,12.7252222 9.35564593,12.2790926 L9.61563301,11.7540754 L9.61563301,11.7540754 L9.8493616,11.25714 L9.8493616,11.25714 L10.0548321,10.7993939 L10.0548321,10.7993939 L10.2300447,10.3919447 L10.2300447,10.3919447 L10.373,10.0459 L10.373,10.0459 C10.2165,9.73315 9.99218,9.32834 9.71032,8.92724 C9.06612,8.01052 8.42073,7.53258 7.89637,7.49623 Z M16.2309,7.49623 C15.7066,7.53258 15.0612,8.01052 14.417,8.92724 C14.1351,9.32834 13.9108,9.73315 13.7543,10.0459 L13.9809584,10.588688 L13.9809584,10.588688 L14.1715556,11.0226741 C14.2058156,11.0990422 14.2412947,11.1772747 14.2779512,11.25714 L14.511686,11.7540754 L14.511686,11.7540754 L14.7716778,12.2790926 C14.9987222,12.7252222 15.2510333,13.1890333 15.5234,13.6416 C16.1341,14.6564 16.7925,15.5274 17.4364,16.0691 C18.0372786,16.5745214 18.4090587,16.6268332 18.6454171,16.576082 L18.6976,16.5627 C18.8279,16.5237 19.1811,16.3141 19.3839,15.3153 C19.5749,14.3747 19.5328,13.1011 19.2401,11.7959 C18.9475,10.4913 18.4377,9.30301 17.8229,8.49766 C17.2004,7.6821 16.6515,7.46708 16.2309,7.49623 Z" id="形状" fill="#09244B"></path>
            </g>
        </g>
    </g>
</svg>

<svg xmlns="http://www.w3.org/2000/svg" width="24" height="24"><g fill="none" fill-rule="evenodd"><path d="M24 0v24H0V0h24ZM12.593 23.258l-.011.002-.071.035-.02.004-.014-.004-.071-.035c-.01-.004-.019-.001-.024.005l-.004.01-.017.428.005.02.01.013.104.074.015.004.012-.004.104-.074.012-.016.004-.017-.017-.427c-.002-.01-.009-.017-.017-.018Zm.265-.113-.013.002-.185.093-.01.01-.003.011.018.43.005.012.008.007.201.093c.012.004.023 0 .029-.008l.004-.014-.034-.614c-.003-.012-.01-.02-.02-.022Zm-.715.002a.023.023 0 0 0-.027.006l-.006.014-.034.614c0 .012.007.02.017.024l.015-.002.201-.093.01-.008.004-.011.017-.43-.003-.012-.01-.01-.184-.092Z"/><path fill="#09244B" d="M16.023 4.503c1.83-.126 3.244.942 4.185 2.174.948 1.243 1.601 2.866 1.96 4.462.357 1.596.453 3.311.156 4.773-.285 1.404-1.046 3.01-2.767 3.525-1.62.484-3.04-.22-4.052-1.072-1.016-.855-1.876-2.053-2.552-3.176a25.298 25.298 0 0 1-.89-1.616 25.35 25.35 0 0 1-.889 1.615c-.676 1.124-1.536 2.322-2.552 3.177-1.013.852-2.432 1.556-4.052 1.072-1.721-.515-2.482-2.12-2.767-3.525-.296-1.462-.2-3.177.157-4.773.358-1.596 1.011-3.22 1.96-4.462.94-1.232 2.354-2.3 4.184-2.174 1.716.12 2.963 1.283 3.74 2.269l.22.289.219-.29c.777-.985 2.024-2.149 3.74-2.268ZM7.896 7.496c-.42-.029-.97.186-1.592 1.002-.614.805-1.124 1.993-1.417 3.298-.292 1.305-.335 2.579-.144 3.52.165.81.43 1.101.592 1.203l.068.034.027.01c.232.07.614.05 1.26-.494.645-.542 1.303-1.413 1.914-2.427.272-.453.525-.917.752-1.363l.26-.525.233-.497.206-.458.175-.407.143-.346a8.923 8.923 0 0 0-.663-1.119c-.644-.916-1.29-1.394-1.814-1.43Zm8.335 0c-.524.037-1.17.515-1.814 1.431a8.918 8.918 0 0 0-.663 1.119l.227.543.19.434.107.234.234.497.26.525c.227.446.479.91.751 1.363.611 1.014 1.27 1.885 1.913 2.427.601.506.973.558 1.21.507l.052-.013c.13-.04.483-.249.686-1.248.19-.94.149-2.214-.144-3.52-.292-1.304-.802-2.492-1.417-3.297-.623-.816-1.172-1.03-1.592-1.002Z"/></g></svg>
